ExpEYES17/UserManual/fr/rst/exp/schematics/sound-capture.svg

<?xml version="1.0" encoding="UTF-8" standalone="no"?>
<svg
   xmlns:dc="http://purl.org/dc/elements/1.1/"
   xmlns:cc="http://creativecommons.org/ns#"
   xmlns:rdf="http://www.w3.org/1999/02/22-rdf-syntax-ns#"
   xmlns:svg="http://www.w3.org/2000/svg"
   xmlns="http://www.w3.org/2000/svg"
   xmlns:sodipodi="http://sodipodi.sourceforge.net/DTD/sodipodi-0.dtd"
   xmlns:inkscape="http://www.inkscape.org/namespaces/inkscape"
   version="1.1"
   id="sound-capture"
   width="100%"
   height="100%"
   viewBox="-6 -6 886 294"
   sodipodi:docname="sound-capture.svg"
   inkscape:export-filename="/home/georgesk/developpement/expeyes/expeyes/ExpEYES17/UserManual/fr/rst/exp/schematics/sound-capture.png"
   inkscape:export-xdpi="32.653061"
   inkscape:export-ydpi="32.653061"
   inkscape:version="0.92.2 (5c3e80d, 2017-08-06)">
  <metadata
     id="metadata59">
    <rdf:RDF>
      <cc:Work
         rdf:about="">
        <dc:format>image/svg+xml</dc:format>
        <dc:type
           rdf:resource="http://purl.org/dc/dcmitype/StillImage" />
        <dc:title></dc:title>
      </cc:Work>
    </rdf:RDF>
  </metadata>
  <defs
     id="defs57" />
  <sodipodi:namedview
     pagecolor="#ffffff"
     bordercolor="#666666"
     borderopacity="1"
     objecttolerance="10"
     gridtolerance="10"
     guidetolerance="10"
     inkscape:pageopacity="0"
     inkscape:pageshadow="2"
     inkscape:window-width="1668"
     inkscape:window-height="1013"
     id="namedview55"
     showgrid="false"
     inkscape:zoom="1.2121896"
     inkscape:cx="443"
     inkscape:cy="147"
     inkscape:window-x="0"
     inkscape:window-y="0"
     inkscape:window-maximized="1"
     inkscape:current-layer="sound-capture" />
  <desc
     id="desc2">
XCircuit Version 3.7
File &quot;sound-capture.ps&quot; Page 1
</desc>
  <text
     font-size="40"
     id="text12"
     style="font-size:40px;font-family:Helvetica;fill:#000000;stroke:none"
     x="27.780001"
     y="238.58">
    <tspan
       x="27.780001"
       y="238.58"
       id="tspan10">GND</tspan>
  </text>
  <path
     style="fill:none;stroke:#000000;stroke-width:2;stroke-linecap:round;stroke-linejoin:bevel"
     inkscape:connector-curvature="0"
     id="path16"
     d="m 16,192 v 64 h 112 v -64 z" />
  <path
     style="fill:none;stroke:#000000;stroke-width:2;stroke-linecap:round;stroke-linejoin:bevel"
     inkscape:connector-curvature="0"
     id="path18"
     d="m 128,48 v 64 H 32 V 48 Z" />
  <text
     font-size="40"
     id="text22"
     style="font-size:40px;font-family:Helvetica;fill:#000000;stroke:none"
     x="42.733437"
     y="94.580002">
    <tspan
       x="42.733437"
       y="94.580002"
       id="tspan20">MIC</tspan>
  </text>
  <text
     font-size="40"
     id="text28"
     style="font-size:40px;font-family:Helvetica;fill:#000000;stroke:none"
     x="288"
     y="224">
    <tspan
       x="288"
       y="224"
       id="tspan26">Mic</tspan>
  </text>
  <path
     style="fill:none;stroke:#000000;stroke-width:2;stroke-linecap:round;stroke-linejoin:bevel"
     inkscape:connector-curvature="0"
     id="path32"
     d="m 304,112 v 64 h 48 v -64 z" />
  <path
     style="fill:none;stroke:#000000;stroke-width:2;stroke-linecap:round;stroke-linejoin:bevel"
     inkscape:connector-curvature="0"
     id="path34"
     d="M 304,128 C 240,48 176,160 128,80" />
  <path
     style="fill:none;stroke:#000000;stroke-width:2;stroke-linecap:round;stroke-linejoin:bevel"
     inkscape:connector-curvature="0"
     id="path36"
     d="m 304,160 c -128,64 -128,0 -176,64" />
  <g
     id="g99"
     transform="translate(14.423125,4)">
    <text
       y="128"
       x="512"
       style="font-size:40px;font-family:Helvetica;fill:#000000;stroke:none"
       id="text6"
       font-size="40">
      <tspan
         id="tspan4"
         y="128"
         x="512">Source sonore</tspan>
    </text>
    <text
       y="176"
       x="512"
       style="font-size:40px;font-family:Helvetica;fill:#000000;stroke:none"
       id="text40"
       font-size="40">
      <tspan
         id="tspan38"
         y="176"
         x="512">Sifflet, buzzer, etc.</tspan>
    </text>
  </g>
  <path
     style="fill:none;stroke:#000000;stroke-width:2;stroke-linecap:round;stroke-linejoin:bevel"
     inkscape:connector-curvature="0"
     id="path44"
     d="M 512,80 V 208 H 864 V 80 Z" />
  <path
     style="fill:#000000;stroke:none"
     inkscape:connector-curvature="0"
     id="path46"
     d="m 492,120 c -10,5 -13,5 -28,8 15,3 18,3 28,8 -2,-6 -2,-10 0,-16" />
  <path
     style="fill:#000000;stroke:none"
     inkscape:connector-curvature="0"
     id="path48"
     d="m 492,136 c -10,5 -13,5 -28,8 15,3 18,3 28,8 -2,-6 -2,-10 0,-16" />
  <path
     style="fill:none;stroke:#000000;stroke-width:2;stroke-linecap:round;stroke-linejoin:bevel"
     inkscape:connector-curvature="0"
     id="path50"
     d="M 0,0 V 288 H 880 V 0 Z" />
</svg>

<svg xmlns="http://www.w3.org/2000/svg"
   xmlns:xlink="http://www.w3.org/1999/xlink"
   version="1.1"
   id="sound-capture" width="100%" height="100%"  viewBox="-6 -6 886 294">
<desc>
XCircuit Version 3.7
File "sound-capture.ps" Page 1
</desc>
<g stroke="black">
<g transform="matrix(   1    0   -0    1 512 128)" fill="#000000" >
<text stroke="none" font-family="Helvetica" font-size="40" ><tspan x="0" y="0">Source of Sound</tspan>
</text></g>
<g transform="matrix(   1    0   -0    1  32 240)" fill="#000000" >
<text stroke="none" font-family="Helvetica" font-size="40" ><tspan x="0" y="0">GND</tspan>
</text></g>
<path d="M16,192 L16,256 128,256 128,192 z" fill="none" stroke-width="2" stroke-linejoin="bevel" stroke-linecap="round" stroke="#000000" />
<path d="M128,48 L128,112 32,112 32,48 z" fill="none" stroke-width="2" stroke-linejoin="bevel" stroke-linecap="round" stroke="#000000" />
<g transform="matrix(   1    0   -0    1  48  96)" fill="#000000" >
<text stroke="none" font-family="Helvetica" font-size="40" ><tspan x="0" y="0">MIC</tspan>
</text></g>
<g transform="matrix(   1    0   -0    1 288 224)" fill="#000000" >
<text stroke="none" font-family="Helvetica" font-size="40" ><tspan x="0" y="0">Mic</tspan>
</text></g>
<path d="M304,112 L304,176 352,176 352,112 z" fill="none" stroke-width="2" stroke-linejoin="bevel" stroke-linecap="round" stroke="#000000" />
<path d="M304,128 C240,48 176,160 128,80 " fill="none" stroke-width="2" stroke-linejoin="bevel" stroke-linecap="round" stroke="#000000" />
<path d="M304,160 C176,224 176,160 128,224 " fill="none" stroke-width="2" stroke-linejoin="bevel" stroke-linecap="round" stroke="#000000" />
<g transform="matrix(   1    0   -0    1 512 176)" fill="#000000" >
<text stroke="none" font-family="Helvetica" font-size="40" ><tspan x="0" y="0">Whistle, buzzer etc</tspan>
</text></g>
<path d="M512,80 L512,208 864,208 864,80 z" fill="none" stroke-width="2" stroke-linejoin="bevel" stroke-linecap="round" stroke="#000000" />
<path d="M492,120 C482,125 479,125 464,128 C479,131 482,131 492,136 C490,130 490,126 492,120 " fill="#000000" stroke="none" />
<path d="M492,136 C482,141 479,141 464,144 C479,147 482,147 492,152 C490,146 490,142 492,136 " fill="#000000" stroke="none" />
<path d="M0,0 L0,288 880,288 880,0 z" fill="none" stroke-width="2" stroke-linejoin="bevel" stroke-linecap="round" stroke="#000000" />
</g>
</svg>
